svg/fluentui-system-icons/ic_fluent_receipt_sparkles_20_regular.svg

<svg width="20" height="20" viewBox="0 0 20 20" fill="none" xmlns="http://www.w3.org/2000/svg">
<path d="M15.226 1.35305L14.8777 0.282251C14.8486 0.19972 14.7946 0.128252 14.7231 0.0776997C14.6516 0.0271473 14.5662 0 14.4786 0C14.391 0 14.3056 0.0271473 14.2341 0.0776997C14.1626 0.128252 14.1085 0.19972 14.0794 0.282251L13.7311 1.35305C13.625 1.67631 13.4454 1.97065 13.2066 2.21307C12.9677 2.45549 12.6759 2.63941 12.3541 2.75044L11.2825 3.09845C11.1999 3.12757 11.1284 3.18157 11.0778 3.25301C11.0272 3.32445 11 3.40981 11 3.49733C11 3.58484 11.0272 3.6702 11.0778 3.74164C11.1284 3.81308 11.1999 3.86708 11.2825 3.8962L12.3541 4.24421C12.6292 4.33588 12.883 4.48064 13.1014 4.66973C13.1421 4.70496 13.1815 4.74173 13.2197 4.77999C13.4202 4.98116 13.5796 5.21872 13.6897 5.47932C13.7128 5.53422 13.7338 5.59014 13.7525 5.64696L14.1008 6.71775C14.1271 6.79215 14.1736 6.85755 14.2349 6.90675C14.2416 6.91213 14.2484 6.91732 14.2555 6.92231C14.327 6.97286 14.4124 7.00001 14.5 7.00001C14.5876 7.00001 14.673 6.97286 14.7445 6.92231C14.816 6.87175 14.87 6.80029 14.8992 6.71775L15.2475 5.64696C15.3558 5.32141 15.5385 5.0256 15.7813 4.78302C16.0241 4.54044 16.3201 4.35778 16.6459 4.24956L17.7175 3.90155C17.8001 3.87244 17.8716 3.81844 17.9222 3.747C17.9728 3.67556 18 3.5902 18 3.50268C18 3.41516 17.9728 3.3298 17.9222 3.25836C17.8716 3.18692 17.8001 3.13292 17.7175 3.10381L17.6961 3.09845L16.6245 2.75044C16.2987 2.64223 16.0026 2.45957 15.7599 2.21699C15.5171 1.97441 15.3343 1.67859 15.226 1.35305ZM19.0175 7.96461L19.7829 8.21319L19.7982 8.21701C19.8572 8.23781 19.9083 8.27638 19.9445 8.32741C19.9806 8.37844 20 8.43941 20 8.50192C20 8.56443 19.9806 8.62541 19.9445 8.67643C19.9083 8.72746 19.8572 8.76603 19.7982 8.78683L19.0328 9.03541C18.8001 9.11271 18.5886 9.24317 18.4152 9.41645C18.2418 9.58972 18.1113 9.80101 18.0339 10.0335L17.7851 10.7984C17.7643 10.8574 17.7257 10.9084 17.6746 10.9445C17.6236 10.9806 17.5626 11 17.5 11C17.4374 11 17.3764 10.9806 17.3254 10.9445C17.2743 10.9084 17.2357 10.8574 17.2149 10.7984L16.9661 10.0335C16.8893 9.80031 16.7589 9.58824 16.5855 9.41428C16.412 9.24032 16.2003 9.10926 15.9672 9.03158L15.2018 8.78301C15.1428 8.76221 15.0917 8.72364 15.0555 8.67261C15.0194 8.62158 15 8.56061 15 8.4981C15 8.43558 15.0194 8.37461 15.0555 8.32358C15.0917 8.27255 15.1428 8.23398 15.2018 8.21319L15.9672 7.96461C16.1971 7.8853 16.4055 7.75392 16.5761 7.58077C16.7467 7.40762 16.875 7.19737 16.9508 6.96647L17.1996 6.20161C17.2204 6.14266 17.259 6.09161 17.31 6.05551C17.3611 6.0194 17.4221 6.00001 17.4847 6.00001C17.5473 6.00001 17.6083 6.0194 17.6593 6.05551C17.7104 6.09161 17.749 6.14266 17.7698 6.20161L18.0186 6.96647C18.0959 7.199 18.2265 7.4103 18.3999 7.58357C18.5733 7.75684 18.7848 7.88731 19.0175 7.96461ZM14 8.50002C13.976 8.35706 13.9762 8.21158 14 8.06955V7.85604C13.8598 7.81374 13.7278 7.74745 13.61 7.66002C13.3991 7.48636 13.2399 7.25803 13.15 7.00002L13 6.48638V16H6C4.89543 16 4 15.1046 4 14V5C4 4.44772 4.44772 4 5 4H10.0972C10.0353 3.84151 10.002 3.67222 10 3.50002C10.0042 3.32724 10.0402 3.15785 10.1053 3H5C3.89543 3 3 3.89543 3 5V14C3 15.6569 4.34315 17 6 17H14C15.6569 17 17 15.6569 17 14V12.5C17 12.2239 16.7761 12 16.5 12H14V8.50002ZM14 13H16V14C16 15.1046 15.1046 16 14 16V13ZM6 6.5C6 6.22386 6.22386 6 6.5 6H10.5C10.7761 6 11 6.22386 11 6.5C11 6.77614 10.7761 7 10.5 7H6.5C6.22386 7 6 6.77614 6 6.5ZM6 9.5C6 9.22386 6.22386 9 6.5 9H10.5C10.7761 9 11 9.22386 11 9.5C11 9.77614 10.7761 10 10.5 10H6.5C6.22386 10 6 9.77614 6 9.5ZM6 12.5C6 12.2239 6.22386 12 6.5 12H8.5C8.77614 12 9 12.2239 9 12.5C9 12.7761 8.77614 13 8.5 13H6.5C6.22386 13 6 12.7761 6 12.5Z" fill="#212121"/>
</svg>

<svg xmlns="http://www.w3.org/2000/svg" width="20" height="20"><path d="m15.226 1.353-.348-1.07a.423.423 0 0 0-.799 0l-.348 1.07a2.206 2.206 0 0 1-1.377 1.397l-1.071.348a.423.423 0 0 0 0 .798l1.071.348a2.208 2.208 0 0 1 1.399 1.403l.348 1.07a.423.423 0 0 0 .798 0l.349-1.07a2.205 2.205 0 0 1 1.398-1.397l1.072-.348a.423.423 0 0 0 0-.798l-.022-.006-1.072-.348a2.207 2.207 0 0 1-1.398-1.397Zm3.791 6.612.766.248.015.004a.303.303 0 0 1 0 .57l-.765.248a1.577 1.577 0 0 0-1 .998l-.248.765a.302.302 0 0 1-.57 0l-.249-.764a1.575 1.575 0 0 0-.999-1.002l-.765-.249a.303.303 0 0 1 0-.57l.765-.248a1.577 1.577 0 0 0 .984-.999l.249-.764a.302.302 0 0 1 .57 0l.249.764a1.575 1.575 0 0 0 .998.999ZM14 8.5a1.301 1.301 0 0 1 0-.43v-.214a1.27 1.27 0 0 1-.39-.196 1.49 1.49 0 0 1-.46-.66L13 6.486V16H6a2 2 0 0 1-2-2V5a1 1 0 0 1 1-1h5.097A1.42 1.42 0 0 1 10 3.5a1.4 1.4 0 0 1 .105-.5H5a2 2 0 0 0-2 2v9a3 3 0 0 0 3 3h8a3 3 0 0 0 3-3v-1.5a.5.5 0 0 0-.5-.5H14V8.5Zm0 4.5h2v1a2 2 0 0 1-2 2v-3ZM6 6.5a.5.5 0 0 1 .5-.5h4a.5.5 0 0 1 0 1h-4a.5.5 0 0 1-.5-.5Zm0 3a.5.5 0 0 1 .5-.5h4a.5.5 0 0 1 0 1h-4a.5.5 0 0 1-.5-.5Zm0 3a.5.5 0 0 1 .5-.5h2a.5.5 0 0 1 0 1h-2a.5.5 0 0 1-.5-.5Z"/></svg>
